SYMBOLS/legends/RelativeSex.svg

<?xml version="1.0" encoding="utf-8" standalone="no"?>
<!DOCTYPE svg PUBLIC "-//W3C//DTD SVG 1.1//EN"
  "http://www.w3.org/Graphics/SVG/1.1/DTD/svg11.dtd">
<svg xmlns:xlink="http://www.w3.org/1999/xlink" width="371.52pt" height="392.58075pt" viewBox="0 0 371.52 392.58075" xmlns="http://www.w3.org/2000/svg" version="1.1">
 <metadata>
  <rdf:RDF xmlns:dc="http://purl.org/dc/elements/1.1/" xmlns:cc="http://creativecommons.org/ns#" xmlns:rdf="http://www.w3.org/1999/02/22-rdf-syntax-ns#">
   <cc:Work>
    <dc:type rdf:resource="http://purl.org/dc/dcmitype/StillImage"/>
    <dc:date>2022-01-14T18:15:18.747595</dc:date>
    <dc:format>image/svg+xml</dc:format>
    <dc:creator>
     <cc:Agent>
      <dc:title>Matplotlib v3.5.1, https://matplotlib.org/</dc:title>
     </cc:Agent>
    </dc:creator>
   </cc:Work>
  </rdf:RDF>
 </metadata>
 <defs>
  <style type="text/css">*{stroke-linejoin: round; stroke-linecap: butt}</style>
 </defs>
 <g id="figure_1">
  <g id="patch_1">
   <path d="M 0 392.58075 
L 371.52 392.58075 
L 371.52 -0 
L 0 -0 
L 0 392.58075 
z
" style="fill: none"/>
  </g>
  <g id="axes_1">
   <g id="patch_2">
    <path d="M 186.448595 19.296003 
C 160.049381 19.296003 134.368526 27.975883 113.382482 43.991638 
C 92.396438 60.007394 77.247323 82.487406 70.280843 107.950843 
C 63.314363 133.41428 64.909652 160.475353 74.819694 184.943895 
C 84.729737 209.412436 102.415202 229.956803 125.13765 243.39588 
L 186.448595 139.732898 
L 186.448595 19.296003 
z
" style="fill: #0000ff; stroke: #000000; stroke-width: 2; stroke-linejoin: miter"/>
   </g>
   <g id="patch_3">
    <path d="M 125.13765 243.39588 
C 141.083553 252.827003 158.992614 258.452874 177.46717 259.834437 
C 195.941725 261.216 214.488341 258.316355 231.659597 251.361797 
C 248.830853 244.407238 264.168124 233.583515 276.474457 219.735334 
C 288.780789 205.887154 297.727494 189.384386 302.61635 171.514942 
C 307.505206 153.645499 308.205637 134.886654 304.662982 116.702388 
C 301.120326 98.518123 293.429202 81.394119 282.189844 66.666772 
C 270.950486 51.939425 256.463084 40.002086 239.858267 31.786372 
C 223.25345 23.570657 204.974714 19.296 186.448572 19.296003 
L 186.448595 139.732898 
L 125.13765 243.39588 
z
" style="fill: #ff0000; stroke: #000000; stroke-width: 2; stroke-linejoin: miter"/>
   </g>
   <g id="matplotlib.axis_1"/>
   <g id="matplotlib.axis_2"/>
   <g id="text_1">
    <!-- 41% -->
    <g transform="translate(83.4081 128.94179)scale(0.3 -0.3)">
     <defs>
      <path id="DejaVuSans-34" d="M 2419 4116 
L 825 1625 
L 2419 1625 
L 2419 4116 
z
M 2253 4666 
L 3047 4666 
L 3047 1625 
L 3713 1625 
L 3713 1100 
L 3047 1100 
L 3047 0 
L 2419 0 
L 2419 1100 
L 313 1100 
L 313 1709 
L 2253 4666 
z
" transform="scale(0.015625)"/>
      <path id="DejaVuSans-31" d="M 794 531 
L 1825 531 
L 1825 4091 
L 703 3866 
L 703 4441 
L 1819 4666 
L 2450 4666 
L 2450 531 
L 3481 531 
L 3481 0 
L 794 0 
L 794 531 
z
" transform="scale(0.015625)"/>
      <path id="DejaVuSans-25" d="M 4653 2053 
Q 4381 2053 4226 1822 
Q 4072 1591 4072 1178 
Q 4072 772 4226 539 
Q 4381 306 4653 306 
Q 4919 306 5073 539 
Q 5228 772 5228 1178 
Q 5228 1588 5073 1820 
Q 4919 2053 4653 2053 
z
M 4653 2450 
Q 5147 2450 5437 2106 
Q 5728 1763 5728 1178 
Q 5728 594 5436 251 
Q 5144 -91 4653 -91 
Q 4153 -91 3862 251 
Q 3572 594 3572 1178 
Q 3572 1766 3864 2108 
Q 4156 2450 4653 2450 
z
M 1428 4353 
Q 1159 4353 1004 4120 
Q 850 3888 850 3481 
Q 850 3069 1003 2837 
Q 1156 2606 1428 2606 
Q 1700 2606 1854 2837 
Q 2009 3069 2009 3481 
Q 2009 3884 1853 4118 
Q 1697 4353 1428 4353 
z
M 4250 4750 
L 4750 4750 
L 1831 -91 
L 1331 -91 
L 4250 4750 
z
M 1428 4750 
Q 1922 4750 2215 4408 
Q 2509 4066 2509 3481 
Q 2509 2891 2217 2550 
Q 1925 2209 1428 2209 
Q 931 2209 642 2551 
Q 353 2894 353 3481 
Q 353 4063 643 4406 
Q 934 4750 1428 4750 
z
" transform="scale(0.015625)"/>
     </defs>
     <use xlink:href="#DejaVuSans-34"/>
     <use xlink:href="#DejaVuSans-31" x="63.623047"/>
     <use xlink:href="#DejaVuSans-25" x="127.246094"/>
    </g>
   </g>
   <g id="text_2">
    <!-- 59% -->
    <g transform="translate(222.809404 167.08025)scale(0.3 -0.3)">
     <defs>
      <path id="DejaVuSans-35" d="M 691 4666 
L 3169 4666 
L 3169 4134 
L 1269 4134 
L 1269 2991 
Q 1406 3038 1543 3061 
Q 1681 3084 1819 3084 
Q 2600 3084 3056 2656 
Q 3513 2228 3513 1497 
Q 3513 744 3044 326 
Q 2575 -91 1722 -91 
Q 1428 -91 1123 -41 
Q 819 9 494 109 
L 494 744 
Q 775 591 1075 516 
Q 1375 441 1709 441 
Q 2250 441 2565 725 
Q 2881 1009 2881 1497 
Q 2881 1984 2565 2268 
Q 2250 2553 1709 2553 
Q 1456 2553 1204 2497 
Q 953 2441 691 2322 
L 691 4666 
z
" transform="scale(0.015625)"/>
      <path id="DejaVuSans-39" d="M 703 97 
L 703 672 
Q 941 559 1184 500 
Q 1428 441 1663 441 
Q 2288 441 2617 861 
Q 2947 1281 2994 2138 
Q 2813 1869 2534 1725 
Q 2256 1581 1919 1581 
Q 1219 1581 811 2004 
Q 403 2428 403 3163 
Q 403 3881 828 4315 
Q 1253 4750 1959 4750 
Q 2769 4750 3195 4129 
Q 3622 3509 3622 2328 
Q 3622 1225 3098 567 
Q 2575 -91 1691 -91 
Q 1453 -91 1209 -44 
Q 966 3 703 97 
z
M 1959 2075 
Q 2384 2075 2632 2365 
Q 2881 2656 2881 3163 
Q 2881 3666 2632 3958 
Q 2384 4250 1959 4250 
Q 1534 4250 1286 3958 
Q 1038 3666 1038 3163 
Q 1038 2656 1286 2365 
Q 1534 2075 1959 2075 
z
" transform="scale(0.015625)"/>
     </defs>
     <use xlink:href="#DejaVuSans-35"/>
     <use xlink:href="#DejaVuSans-39" x="63.623047"/>
     <use xlink:href="#DejaVuSans-25" x="127.246094"/>
    </g>
   </g>
   <g id="legend_1">
    <g id="patch_4">
     <path d="M 86.049844 385.38075 
L 285.470156 385.38075 
Q 291.470156 385.38075 291.470156 379.38075 
L 291.470156 294.312 
Q 291.470156 288.312 285.470156 288.312 
L 86.049844 288.312 
Q 80.049844 288.312 80.049844 294.312 
L 80.049844 379.38075 
Q 80.049844 385.38075 86.049844 385.38075 
z
" style="fill: #ffffff; opacity: 0.8; stroke: #cccccc; stroke-linejoin: miter"/>
    </g>
    <g id="patch_5">
     <path d="M 92.049844 323.107312 
L 152.049844 323.107312 
L 152.049844 302.107312 
L 92.049844 302.107312 
z
" style="fill: #0000ff; stroke: #000000; stroke-width: 2; stroke-linejoin: miter"/>
    </g>
    <g id="text_3">
     <!-- male -->
     <g transform="translate(176.049844 323.107312)scale(0.3 -0.3)">
      <defs>
       <path id="DejaVuSans-6d" d="M 3328 2828 
Q 3544 3216 3844 3400 
Q 4144 3584 4550 3584 
Q 5097 3584 5394 3201 
Q 5691 2819 5691 2113 
L 5691 0 
L 5113 0 
L 5113 2094 
Q 5113 2597 4934 2840 
Q 4756 3084 4391 3084 
Q 3944 3084 3684 2787 
Q 3425 2491 3425 1978 
L 3425 0 
L 2847 0 
L 2847 2094 
Q 2847 2600 2669 2842 
Q 2491 3084 2119 3084 
Q 1678 3084 1418 2786 
Q 1159 2488 1159 1978 
L 1159 0 
L 581 0 
L 581 3500 
L 1159 3500 
L 1159 2956 
Q 1356 3278 1631 3431 
Q 1906 3584 2284 3584 
Q 2666 3584 2933 3390 
Q 3200 3197 3328 2828 
z
" transform="scale(0.015625)"/>
       <path id="DejaVuSans-61" d="M 2194 1759 
Q 1497 1759 1228 1600 
Q 959 1441 959 1056 
Q 959 750 1161 570 
Q 1363 391 1709 391 
Q 2188 391 2477 730 
Q 2766 1069 2766 1631 
L 2766 1759 
L 2194 1759 
z
M 3341 1997 
L 3341 0 
L 2766 0 
L 2766 531 
Q 2569 213 2275 61 
Q 1981 -91 1556 -91 
Q 1019 -91 701 211 
Q 384 513 384 1019 
Q 384 1609 779 1909 
Q 1175 2209 1959 2209 
L 2766 2209 
L 2766 2266 
Q 2766 2663 2505 2880 
Q 2244 3097 1772 3097 
Q 1472 3097 1187 3025 
Q 903 2953 641 2809 
L 641 3341 
Q 956 3463 1253 3523 
Q 1550 3584 1831 3584 
Q 2591 3584 2966 3190 
Q 3341 2797 3341 1997 
z
" transform="scale(0.015625)"/>
       <path id="DejaVuSans-6c" d="M 603 4863 
L 1178 4863 
L 1178 0 
L 603 0 
L 603 4863 
z
" transform="scale(0.015625)"/>
       <path id="DejaVuSans-65" d="M 3597 1894 
L 3597 1613 
L 953 1613 
Q 991 1019 1311 708 
Q 1631 397 2203 397 
Q 2534 397 2845 478 
Q 3156 559 3463 722 
L 3463 178 
Q 3153 47 2828 -22 
Q 2503 -91 2169 -91 
Q 1331 -91 842 396 
Q 353 884 353 1716 
Q 353 2575 817 3079 
Q 1281 3584 2069 3584 
Q 2775 3584 3186 3129 
Q 3597 2675 3597 1894 
z
M 3022 2063 
Q 3016 2534 2758 2815 
Q 2500 3097 2075 3097 
Q 1594 3097 1305 2825 
Q 1016 2553 972 2059 
L 3022 2063 
z
" transform="scale(0.015625)"/>
      </defs>
      <use xlink:href="#DejaVuSans-6d"/>
      <use xlink:href="#DejaVuSans-61" x="97.412109"/>
      <use xlink:href="#DejaVuSans-6c" x="158.691406"/>
      <use xlink:href="#DejaVuSans-65" x="186.474609"/>
     </g>
    </g>
    <g id="patch_6">
     <path d="M 92.049844 367.141687 
L 152.049844 367.141687 
L 152.049844 346.141687 
L 92.049844 346.141687 
z
" style="fill: #ff0000; stroke: #000000; stroke-width: 2; stroke-linejoin: miter"/>
    </g>
    <g id="text_4">
     <!-- female -->
     <g transform="translate(176.049844 367.141687)scale(0.3 -0.3)">
      <defs>
       <path id="DejaVuSans-66" d="M 2375 4863 
L 2375 4384 
L 1825 4384 
Q 1516 4384 1395 4259 
Q 1275 4134 1275 3809 
L 1275 3500 
L 2222 3500 
L 2222 3053 
L 1275 3053 
L 1275 0 
L 697 0 
L 697 3053 
L 147 3053 
L 147 3500 
L 697 3500 
L 697 3744 
Q 697 4328 969 4595 
Q 1241 4863 1831 4863 
L 2375 4863 
z
" transform="scale(0.015625)"/>
      </defs>
      <use xlink:href="#DejaVuSans-66"/>
      <use xlink:href="#DejaVuSans-65" x="35.205078"/>
      <use xlink:href="#DejaVuSans-6d" x="96.728516"/>
      <use xlink:href="#DejaVuSans-61" x="194.140625"/>
      <use xlink:href="#DejaVuSans-6c" x="255.419922"/>
      <use xlink:href="#DejaVuSans-65" x="283.203125"/>
     </g>
    </g>
   </g>
  </g>
 </g>
</svg>

<?xml version="1.0" encoding="UTF-8" standalone="no"?>
<!-- Created with Inkscape (http://www.inkscape.org/) -->

<svg
   width="160"
   height="200"
   viewBox="0 0 42.333332 52.916668"
   version="1.1"
   id="svg50796"
   inkscape:version="1.1.1 (3bf5ae0d25, 2021-09-20, custom)"
   sodipodi:docname="RelativeSex.svg"
   xmlns:inkscape="http://www.inkscape.org/namespaces/inkscape"
   xmlns:sodipodi="http://sodipodi.sourceforge.net/DTD/sodipodi-0.dtd"
   xmlns:xlink="http://www.w3.org/1999/xlink"
   xmlns="http://www.w3.org/2000/svg"
   xmlns:svg="http://www.w3.org/2000/svg">
  <sodipodi:namedview
     id="namedview50798"
     pagecolor="#ffffff"
     bordercolor="#666666"
     borderopacity="1.0"
     inkscape:pageshadow="2"
     inkscape:pageopacity="0.0"
     inkscape:pagecheckerboard="0"
     inkscape:document-units="mm"
     showgrid="false"
     units="px"
     width="160px"
     inkscape:snap-global="false"
     inkscape:zoom="1"
     inkscape:cx="152.5"
     inkscape:cy="84.5"
     inkscape:window-width="1366"
     inkscape:window-height="703"
     inkscape:window-x="0"
     inkscape:window-y="0"
     inkscape:window-maximized="1"
     inkscape:current-layer="layer1" />
  <defs
     id="defs50793">
    <rect
       x="76.378906"
       y="138.46094"
       width="51.574219"
       height="15.683594"
       id="rect66809" />
    <style
       type="text/css"
       id="style50868">*{stroke-linejoin: round; stroke-linecap: butt}</style>
    <path
       id="DejaVuSans-34"
       d="M 2419 4116  L 825 1625  L 2419 1625  L 2419 4116  z M 2253 4666  L 3047 4666  L 3047 1625  L 3713 1625  L 3713 1100  L 3047 1100  L 3047 0  L 2419 0  L 2419 1100  L 313 1100  L 313 1709  L 2253 4666  z "
       transform="scale(0.015625)" />
    <path
       id="DejaVuSans-31"
       d="M 794 531  L 1825 531  L 1825 4091  L 703 3866  L 703 4441  L 1819 4666  L 2450 4666  L 2450 531  L 3481 531  L 3481 0  L 794 0  L 794 531  z "
       transform="scale(0.015625)" />
    <path
       id="DejaVuSans-25"
       d="M 4653 2053  Q 4381 2053 4226 1822  Q 4072 1591 4072 1178  Q 4072 772 4226 539  Q 4381 306 4653 306  Q 4919 306 5073 539  Q 5228 772 5228 1178  Q 5228 1588 5073 1820  Q 4919 2053 4653 2053  z M 4653 2450  Q 5147 2450 5437 2106  Q 5728 1763 5728 1178  Q 5728 594 5436 251  Q 5144 -91 4653 -91  Q 4153 -91 3862 251  Q 3572 594 3572 1178  Q 3572 1766 3864 2108  Q 4156 2450 4653 2450  z M 1428 4353  Q 1159 4353 1004 4120  Q 850 3888 850 3481  Q 850 3069 1003 2837  Q 1156 2606 1428 2606  Q 1700 2606 1854 2837  Q 2009 3069 2009 3481  Q 2009 3884 1853 4118  Q 1697 4353 1428 4353  z M 4250 4750  L 4750 4750  L 1831 -91  L 1331 -91  L 4250 4750  z M 1428 4750  Q 1922 4750 2215 4408  Q 2509 4066 2509 3481  Q 2509 2891 2217 2550  Q 1925 2209 1428 2209  Q 931 2209 642 2551  Q 353 2894 353 3481  Q 353 4063 643 4406  Q 934 4750 1428 4750  z "
       transform="scale(0.015625)" />
    <path
       id="DejaVuSans-35"
       d="M 691 4666  L 3169 4666  L 3169 4134  L 1269 4134  L 1269 2991  Q 1406 3038 1543 3061  Q 1681 3084 1819 3084  Q 2600 3084 3056 2656  Q 3513 2228 3513 1497  Q 3513 744 3044 326  Q 2575 -91 1722 -91  Q 1428 -91 1123 -41  Q 819 9 494 109  L 494 744  Q 775 591 1075 516  Q 1375 441 1709 441  Q 2250 441 2565 725  Q 2881 1009 2881 1497  Q 2881 1984 2565 2268  Q 2250 2553 1709 2553  Q 1456 2553 1204 2497  Q 953 2441 691 2322  L 691 4666  z "
       transform="scale(0.015625)" />
    <path
       id="DejaVuSans-39"
       d="M 703 97  L 703 672  Q 941 559 1184 500  Q 1428 441 1663 441  Q 2288 441 2617 861  Q 2947 1281 2994 2138  Q 2813 1869 2534 1725  Q 2256 1581 1919 1581  Q 1219 1581 811 2004  Q 403 2428 403 3163  Q 403 3881 828 4315  Q 1253 4750 1959 4750  Q 2769 4750 3195 4129  Q 3622 3509 3622 2328  Q 3622 1225 3098 567  Q 2575 -91 1691 -91  Q 1453 -91 1209 -44  Q 966 3 703 97  z M 1959 2075  Q 2384 2075 2632 2365  Q 2881 2656 2881 3163  Q 2881 3666 2632 3958  Q 2384 4250 1959 4250  Q 1534 4250 1286 3958  Q 1038 3666 1038 3163  Q 1038 2656 1286 2365  Q 1534 2075 1959 2075  z "
       transform="scale(0.015625)" />
    <rect
       x="76.378906"
       y="138.46094"
       width="51.574219"
       height="15.683594"
       id="rect66809-7" />
  </defs>
  <g
     inkscape:label="Layer 1"
     inkscape:groupmode="layer"
     id="layer1">
    <g
       id="figure_1"
       transform="matrix(0.11394631,0,0,0.11394631,0.48152743,0.13018591)">
      <g
         id="patch_1">
        <path
           d="M 0,280.512 H 371.52 V 0 H 0 Z"
           style="fill:none"
           id="path50872" />
      </g>
      <g
         id="axes_1">
        <g
           id="patch_2">
          <path
             d="m 186.44859,19.296003 c -26.39921,0 -52.08006,8.67988 -73.06611,24.695635 -20.986042,16.015756 -36.135157,38.495768 -43.101637,63.959202 -6.96648,25.46344 -5.371191,52.52451 4.538851,76.99305 9.910043,24.46855 27.595506,45.01291 50.317956,58.45199 L 186.44859,139.7329 Z"
             style="fill:#0000ff;stroke:#000000;stroke-width:2;stroke-linejoin:miter"
             id="path50875" />
        </g>
        <g
           id="patch_3">
          <path
             d="m 125.13765,243.39588 c 15.9459,9.43112 33.85496,15.05699 52.32952,16.43856 18.47455,1.38156 37.02117,-1.51809 54.19243,-8.47264 17.17125,-6.95456 32.50852,-17.77829 44.81486,-31.62647 12.30633,-13.84818 21.25303,-30.35094 26.14189,-48.22039 4.88886,-17.86944 5.58929,-36.62829 2.04663,-54.81255 C 301.12033,98.518123 293.4292,81.394119 282.18984,66.666772 270.95049,51.939425 256.46308,40.002086 239.85827,31.786372 223.25345,23.570657 204.97471,19.296 186.44857,19.296003 l 2e-5,120.436897 z"
             style="fill:#ff0000;stroke:#000000;stroke-width:2;stroke-linejoin:miter"
             id="path50878" />
        </g>
        <g
           id="matplotlib.axis_1" />
        <g
           id="matplotlib.axis_2" />
        <g
           id="text_1">
          <!-- 41% -->
          <g
             transform="matrix(0.3,0,0,-0.3,83.4081,128.94179)"
             id="g50894">
            <defs
               id="defs50886">
              <path
                 id="path50930"
                 d="M 2419,4116 825,1625 h 1594 z m -166,550 h 794 V 1625 h 666 V 1100 H 3047 V 0 H 2419 V 1100 H 313 v 609 z"
                 transform="scale(0.015625)" />
              <path
                 id="path50932"
                 d="M 794,531 H 1825 V 4091 L 703,3866 v 575 l 1116,225 h 631 V 531 H 3481 V 0 H 794 Z"
                 transform="scale(0.015625)" />
              <path
                 id="path50934"
                 d="m 4653,2053 q -272,0 -427,-231 -154,-231 -154,-644 0,-406 154,-639 155,-233 427,-233 266,0 420,233 155,233 155,639 0,410 -155,642 -154,233 -420,233 z m 0,397 q 494,0 784,-344 291,-343 291,-928 0,-584 -292,-927 -292,-342 -783,-342 -500,0 -791,342 -290,343 -290,927 0,588 292,930 292,342 789,342 z M 1428,4353 q -269,0 -424,-233 -154,-232 -154,-639 0,-412 153,-644 153,-231 425,-231 272,0 426,231 155,232 155,644 0,403 -156,637 -156,235 -425,235 z m 2822,397 h 500 L 1831,-91 h -500 z m -2822,0 q 494,0 787,-342 294,-342 294,-927 0,-590 -292,-931 -292,-341 -789,-341 -497,0 -786,342 -289,343 -289,930 0,582 290,925 291,344 785,344 z"
                 transform="scale(0.015625)" />
            </defs>
            <use
               xlink:href="#DejaVuSans-34"
               id="use50888"
               x="0"
               y="0"
               width="100%"
               height="100%" />
            <use
               xlink:href="#DejaVuSans-31"
               x="63.623047"
               id="use50890"
               y="0"
               width="100%"
               height="100%" />
            <use
               xlink:href="#DejaVuSans-25"
               x="127.24609"
               id="use50892"
               y="0"
               width="100%"
               height="100%" />
          </g>
        </g>
        <g
           id="text_2">
          <!-- 59% -->
          <g
             transform="matrix(0.3,0,0,-0.3,222.8094,167.08025)"
             id="g50907">
            <defs
               id="defs50899">
              <path
                 id="path50942"
                 d="M 691,4666 H 3169 V 4134 H 1269 V 2991 q 137,47 274,70 138,23 276,23 781,0 1237,-428 457,-428 457,-1159 Q 3513,744 3044,326 2575,-91 1722,-91 1428,-91 1123,-41 819,9 494,109 v 635 q 281,-153 581,-228 300,-75 634,-75 541,0 856,284 316,284 316,772 0,487 -316,771 -315,285 -856,285 -253,0 -505,-56 -251,-56 -513,-175 z"
                 transform="scale(0.015625)" />
              <path
                 id="path50944"
                 d="m 703,97 v 575 q 238,-113 481,-172 244,-59 479,-59 625,0 954,420 330,420 377,1277 -181,-269 -460,-413 -278,-144 -615,-144 -700,0 -1108,423 -408,424 -408,1159 0,718 425,1152 425,435 1131,435 810,0 1236,-621 427,-620 427,-1801 Q 3622,1225 3098,567 2575,-91 1691,-91 1453,-91 1209,-44 966,3 703,97 Z m 1256,1978 q 425,0 673,290 249,291 249,798 0,503 -249,795 -248,292 -673,292 -425,0 -673,-292 -248,-292 -248,-795 0,-507 248,-798 248,-290 673,-290 z"
                 transform="scale(0.015625)" />
            </defs>
            <use
               xlink:href="#DejaVuSans-35"
               id="use50901"
               x="0"
               y="0"
               width="100%"
               height="100%" />
            <use
               xlink:href="#DejaVuSans-39"
               x="63.623047"
               id="use50903"
               y="0"
               width="100%"
               height="100%" />
            <use
               xlink:href="#DejaVuSans-25"
               x="127.24609"
               id="use50905"
               y="0"
               width="100%"
               height="100%" />
          </g>
        </g>
      </g>
    </g>
    <rect
       style="fill:#0000ff;fill-opacity:1;stroke-width:0.264583;stroke-opacity:0.7"
       id="rect50976"
       width="6.5277667"
       height="3.7062335"
       x="8.6661367"
       y="37.953239" />
    <rect
       style="fill:#ff0000;fill-opacity:1;stroke-width:0.264583;stroke-linecap:butt;stroke-linejoin:round;stroke-opacity:0.7"
       id="rect50976-8"
       width="6.5277667"
       height="3.7062335"
       x="8.6661367"
       y="44.305309" />
    <text
       xml:space="preserve"
       transform="matrix(0.26458333,0,0,0.26458333,3.1750001,0.52916663)"
       id="text66807"
       style="font-size:13.3333px;line-height:1.25;font-family:sans-serif;white-space:pre;shape-inside:url(#rect66809)"><tspan
         x="76.378906"
         y="150.25778"
         id="tspan74040">Male</tspan></text>
    <text
       xml:space="preserve"
       transform="matrix(0.26458333,0,0,0.26458333,4.1091489,7.3323744)"
       id="text66807-9"
       style="font-size:13.3333px;line-height:1.25;font-family:sans-serif;white-space:pre;shape-inside:url(#rect66809-7);stroke-linecap:butt;stroke-linejoin:round"><tspan
         x="76.378906"
         y="150.25778"
         id="tspan74042">Female</tspan></text>
  </g>
</svg>
